media/theme/theme-5/space.svg

<svg fill="none" height="24" viewBox="0 0 155 24" width="155" xmlns="http://www.w3.org/2000/svg"><path clip-rule="evenodd" d="m74.022 10.6027c-1.1232-.1055-1.5173.1696-2.4035.3719v.7537c1.1175.0422 2.346-.0513 2.7414.3768.1522.8967.0317 1.8236-.3427 2.6377-.6737.6224-.8844.8289-2.056.7536-2.2078-2.3246-2.9795-2.9071-4.7974-4.145 2.5217-1.3018 2.4881-3.63468 6.1681-3.76807.5174.1251.9139.8791 1.028 1.13044.0905.7864.0446 1.46163-.3379 1.88893zm3.0793-1.13531h1.028c.9715.55841 1.1175.99701 1.028 2.63771-.5678 1.1199-.8114 1.1632-2.3987 1.1304-.8224-.2427-.894-.751-1.028-1.5072.0795-.4594-.1371-.7537.3427-1.5073.3224-.85196.698-.73515 1.028-.75361zm-22.6164.37681h8.2241v.3768c-.3531.088-.6974.2142-1.028.3768-.3294.2724-.6726.524-1.028.7536v.3769c.4921.237.8697.4985 1.3707.7536.3187.315.6853.6281.6853.7536h-6.8534c-3.2609-.211-8.8958-.3768-11.9935-.3768l-17.1337-.3768c-4.112-.0234-9.2939.1711-12.6788 0-3.2349-.1636-11.26676.2423-14.0496-.7536 5.74593-.0524 14.2737-.436 19.875-.7537 3.3945-.1925 10.1164-.119 13.3642-.3768 3.5014-.2781 6.9792-.1507 10.2802-.3768 3.1738-.2185 9.1332-.32141 10.9655-.3768zm45.2328 3.3913h-8.2242v-.3768c.3532-.088.6975-.2142 1.028-.3768.3295-.2724.6727-.524 1.0281-.7536v-.3769c-.4921-.237-.8697-.4985-1.3707-.7536-.3187-.315-.6854-.62812-.6854-.7536h6.8535c3.261.211 8.896.3768 11.994.3768l17.133.3768c4.112.0234 9.294-.171 12.679 0 3.234.1636 7.657-.0927 14.05.7536-8.634.4262-13.252.4616-18.847.7537-5.765.3014-7.131.1884-14.393.3768-3.509.0912-6.979.1507-10.28.3768-3.174.2185-9.133.3214-10.9653.3768zm-18.8518-.7585c1.1233.1055 1.5173-.1696 2.4035-.3719v-.7537c-1.1175-.0422-2.3459.0513-2.7414-.3768-.1522-.8967-.0317-1.82361.3427-2.63764.6737-.6225.8844-.82899 2.056-.75363 2.2079 2.32455 2.9795 2.90707 4.7974 4.14497-2.5217 1.3018-2.4881 3.6347-6.1681 3.7681-.5174-.1251-.9139-.8791-1.028-1.1305-.0905-.786-.0445-1.4616.3379-1.8889zm-4.071 3.0612c-.0956 1.2352.1542 1.6685.3386 2.643h.6853c.0384-1.2288-.0469-2.5797.3427-3.0145.8155-.1672 1.6584-.0348 2.3987.3768.5661.7412.7539.9725.6854 2.2608-2.114 2.4278-2.6441 3.2764-3.7694 5.2754-1.184-2.7729-3.3055-2.736-3.4268-6.7826.1135-.569.7995-1.005 1.0281-1.1304.7148-.0995 1.3292-.049 1.7174.3715zm1.6408-7.99669c.0956-1.23519-.1543-1.66853-.3386-2.64296h-.6853c-.0384 1.22878.0469 2.57965-.3427 3.01449-.8155.16718-1.6584.03477-2.3987-.37681-.5661-.74081-.7539-.97255-.6854-2.26087 2.114-2.4278 2.6441-3.27637 3.7694-5.27536 1.184 2.77296 3.3054 2.73603 3.4267 6.78261-.1134.56898-.7994 1.00495-1.028 1.13043-.7148.09948-1.3292.04899-1.7174-.37153z" fill="#000" fill-rule="evenodd"/></svg>

<svg width="155" height="24" viewBox="0 0 155 24" fill="none" xmlns="http://www.w3.org/2000/svg">
<path fill-rule="evenodd" clip-rule="evenodd" d="M74.022 10.6027C72.8988 10.4972 72.5047 10.7723 71.6185 10.9746V11.7283C72.736 11.7705 73.9645 11.677 74.3599 12.1051C74.5121 13.0018 74.3916 13.9287 74.0172 14.7428C73.3435 15.3652 73.1328 15.5717 71.9612 15.4964C69.7534 13.1718 68.9817 12.5893 67.1638 11.3514C69.6855 10.0496 69.6519 7.71672 73.3319 7.58333C73.8493 7.70843 74.2458 8.46243 74.3599 8.71377C74.4504 9.50017 74.4045 10.1754 74.022 10.6027ZM77.1013 9.46739H78.1293C79.1008 10.0258 79.2468 10.4644 79.1573 12.1051C78.5895 13.225 78.3459 13.2683 76.7586 13.2355C75.9362 12.9928 75.8646 12.4845 75.7306 11.7283C75.8101 11.2689 75.5935 10.9746 76.0733 10.221C76.3957 9.36904 76.7713 9.48585 77.1013 9.46739ZM54.4849 9.8442H62.709V10.221C62.3559 10.309 62.0116 10.4352 61.681 10.5978C61.3516 10.8702 61.0084 11.1218 60.653 11.3514V11.7283C61.1451 11.9653 61.5227 12.2268 62.0237 12.4819C62.3424 12.7969 62.709 13.11 62.709 13.2355H55.8556C52.5947 13.0245 46.9598 12.8587 43.8621 12.8587L26.7284 12.4819C22.6164 12.4585 17.4345 12.653 14.0496 12.4819C10.8147 12.3183 2.78284 12.7242 0 11.7283C5.74593 11.6759 14.2737 11.2923 19.875 10.9746C23.2695 10.7821 29.9914 10.8556 33.2392 10.5978C36.7406 10.3197 40.2184 10.4471 43.5194 10.221C46.6932 10.0025 52.6526 9.89959 54.4849 9.8442ZM99.7177 13.2355H91.4935V12.8587C91.8467 12.7707 92.191 12.6445 92.5215 12.4819C92.851 12.2095 93.1942 11.9579 93.5496 11.7283V11.3514C93.0575 11.1144 92.6799 10.8529 92.1789 10.5978C91.8602 10.2828 91.4935 9.96968 91.4935 9.8442H98.347C101.608 10.0552 107.243 10.221 110.341 10.221L127.474 10.5978C131.586 10.6212 136.768 10.4268 140.153 10.5978C143.387 10.7614 147.81 10.5051 154.203 11.3514C145.569 11.7776 140.951 11.813 135.356 12.1051C129.591 12.4065 128.225 12.2935 120.963 12.4819C117.454 12.5731 113.984 12.6326 110.683 12.8587C107.509 13.0772 101.55 13.1801 99.7177 13.2355ZM80.8659 12.477C81.9892 12.5825 82.3832 12.3074 83.2694 12.1051V11.3514C82.1519 11.3092 80.9235 11.4027 80.528 10.9746C80.3758 10.0779 80.4963 9.15099 80.8707 8.33696C81.5444 7.71446 81.7551 7.50797 82.9267 7.58333C85.1346 9.90788 85.9062 10.4904 87.7241 11.7283C85.2024 13.0301 85.236 15.363 81.556 15.4964C81.0386 15.3713 80.6421 14.6173 80.528 14.3659C80.4375 13.5799 80.4835 12.9043 80.8659 12.477ZM76.7949 15.5382C76.6993 16.7734 76.9491 17.2067 77.1335 18.1812H77.8188C77.8572 16.9524 77.7719 15.6015 78.1615 15.1667C78.977 14.9995 79.8199 15.1319 80.5602 15.5435C81.1263 16.2847 81.3141 16.516 81.2456 17.8043C79.1316 20.2321 78.6015 21.0807 77.4762 23.0797C76.2922 20.3068 74.1707 20.3437 74.0494 16.2971C74.1629 15.7281 74.8489 15.2921 75.0775 15.1667C75.7923 15.0672 76.4067 15.1177 76.7949 15.5382ZM78.4357 7.54151C78.5313 6.30632 78.2814 5.87298 78.0971 4.89855H77.4118C77.3734 6.12733 77.4587 7.4782 77.0691 7.91304C76.2536 8.08022 75.4107 7.94781 74.6704 7.53623C74.1043 6.79542 73.9165 6.56368 73.985 5.27536C76.099 2.84756 76.6291 1.99899 77.7544 0C78.9384 2.77296 81.0598 2.73603 81.1811 6.78261C81.0677 7.35159 80.3817 7.78756 80.1531 7.91304C79.4383 8.01252 78.8239 7.96203 78.4357 7.54151Z" fill="black"/>
</svg>
